X:1
T:Trumpet Concerto
T:Oscar Bohme
%%score 1 { ( 2 6 ) | ( 3 4 5 ) }
L:1/8
M:4/4
K:Ab
V:1 treble transpose=-2 nm="BaccidentalFlat Trumpet" snm="BaccidentalFlat Tpt."
V:2 treble nm="Piano" snm="Pno."
V:6 treble 
V:3 bass 
V:4 bass 
V:5 bass 
V:1
[K:Bb] z2 | z8 | z8 | z8 | z8 | z8 | z8 | z4 z2 c>=B | =BA^GA =E2 A>B | cd=ea e2 d>e | %10
 fa D>f =ea A>=B | c(3c/d/c/ =B/A/^G/A/ B=E =e>e | dc=Bc A2 A>B | cd=ea e2 d>e | fc'=ba ^ga=gf | %15
 =ec=Be dc A>B | c(3c/d/c/ =BA ^GA=GF | =E/A/c/=e/ (6:4:6f/e/d/c/=B/A/ ^Gfe^g | %18
 a>=e (6:4:6f/e/d/c/=B/A/ ^GfeG | A>=e (6:4:6a/g/f/e/d/c/ =Bagf | =e>e (6:4:6a/g/f/e/d/c/ =Bfed | %21
 c2- cd/=e/ f/g/a/=b/ c'd' | =e'2 c' z z4 | A2- A=B/c/ d/=e/^f/^g/ a=b | c'2 a z z4 | %25
 (6:4:6D/F/A/d/f/a/ d'2- d'c'=ba | ^gac'=b a=g^f=e | d^d^f=e =dc=E^F | G4- G z z2 | z8 | z8 | %31
 =e4 g2 e2 | ^d4 =e2 c2 | A2 c2 G2 c>=e | g2- g>d g4 | =e2 a4 ge | ^d4 =e2 c2 | A2 =Bc Gcf=e | %38
 d4 =B z z2 | z8 | z4 f2 =ef |{d} c'>=b (7:4:7a/g/f/=e/d/c/=B/ A3 z | %42
 G4 (5:4:5z/ z/ z/ z/ z/ =B/4c/4^c/4d/4^d/4=e/4f/4^f/4 | g2 ag =e2 c2 | ^F4 Gc{dc}=Bc | %45
 f3 f f=e d>^c | =e4 d2 z2 | d3 =e fga=b | c'2 g2- ggd^d | %49
 =ef g2- gG/A/ =B/4c/4d/4e/4f/4g/4a/4=b/4 | c'2 g2 f2 =e2 | g2 f2 ^c2 d2 | =e4- (3eee (3edc | %53
 =e4- (3eee (3edc | d7 =e | c2 z2 z4 | z8 | z8 | z8 | z8 | z8 | z8 | z8 | z8 | z8 | z8 | z2 z2 z4 | %67
 (3=B,=E^G (3=B=e^g =b2 g2 | (3=B,^DG (3=B^dg ^g2 =e2 | (3C=EA (3^c=ea (3=B,E^G (3=Be^g | %70
 =b4 (3^g=e=B (3^GBG | =E2 ^G/=B/=e/g/ ^c'2 =bg | ^D/>G/(3=B/F/B/ (3^d/B/d/(3g/d/g/ ^g2 =e2 | %73
 =E/>A/(3^c/A/c/ (3=e/c/e/a E/>^G/(3=B/G/B/ (3e/B/e/^g | %74
 =B/>^F/(3B/G/B/ (3^d/B/d/f =e/>f/(3g/f/e/ (3d/e/B/G | %75
 =e/>^f/(3g/f/e/ (3^d/e/=B/G e/>f/(3g/f/e/ (3d/e/^c/A | %76
 =e/>^f/(3g/f/e/ (3^d/e/^c/A =d/>e/(3=f/e/d/ (3c/d/A/F | %77
 d/>=e/(3f/e/d/ (3^c/d/A/F d/>e/(3f/e/d/ (3c/d/=B/G | %78
 d/>=e/(3f/e/d/ (3^c/d/=B/G =c/>d/(3e/d/c/ (3B/c/B/=E | %79
 =B/>c/(3d/c/B/ (3^A/B/d/f =A/>B/(3c/B/A/ (3=e/d/c/(3c/B/A/ | %80
 ^G2- G/=E/G/=B/ (3=e/f/e/(3d/e/d/ (3c/d/c/(3B/c/B/ | A2 z2 z4 | z8 | z8 | z8 | z4 z2 =e>e | %86
 dc=Bc A2 A>B | cd=ea e2 d>e | fc'=ba ^ga=gf | =ec=Be dc A>B | c z z2 z4 | z8 | z8 | z8 | z8 | %95
 G z G4 ^G2 | A^C=EA ^A^FA=e | z8 | z8 | =B2 ^A/c/^f/f/ B/^d/f/f/ A/c/f/f/ | %100
 =B/^f/=e/^c/ B/f/e/c/ B/f/e/c/ B/f/e/c/ | =B/=b/f/^d/ B/f/d/c/ ^F/d/B/F/ ^D/B/F/D/ | =B,2 z2 z4 | %103
 z8 | z8 | z8 | z8 | =B4 d2 B2 | ^A4 =B2 G2 | c3 c c=B A>^G | =B4 A2 z2 | A3 =B cd=e^f | %112
 g2 d2- ddA^A | =Bc d2- dD/=E/ ^F/4G/4A/4B/4c/4d/4=e/4f/4 | g2 d2 c2 =B2 | d2 c2 ^G2 A2 | %116
 =B4- (3BBB (3BAG | =B4- (3BBB (3BAG | A7 =B | G3 z z4 | z8 | z8 | z8 | z8 | z8 | z8 | z8 | z8 | %128
 z8 | z8 | z8 | z8 | z8 | z8 | z4 =e3 d || d/d/c/c/ =B/B/c/c/ A/A/A/A/ A/A/B/B/ | %136
 c/c/d/d/ =e/e/a/a/ e/e/e/e/ d/d/e/e/ | f/f/c'/c'/ =b/b/a/a/ ^g/g/a/a/ =g/g/f/f/ | %138
 =e/e/c/c/ =B/B/e/e/ d/d/c/c/ d/d/e/e/ | f/f/c'/c'/ =b/b/a/a/ ^g/g/a/a/ =g/g/f/f/ | %140
 =e/e/f/f/ e/e/d/d/ c/c/=B/B/ A/A/^G/G/ | A F2 G/A/ =B/c/d/=e/ fg | a2 f z/ a/ c'2 F2 | %143
 =E2- E^F/^G/ A/=B/c/d/ =e^g | a2 =e z/ a/ c'2 =E2 | (3D^FA c2 (3FAc ^d2 | %146
 (3Ac^d ^f2 (3^FAc (3dfa | c'4- c'=b/a/ ^g/a/=g/f/ | =e4- ef/f/ e/e/d/d/ | %149
 d/d/c/c/ =B/B/c/c/ A/A/A/A/ A/A/B/B/ | c/c/d/d/ =e/e/a/a/ e/e/e/e/ d/d/e/e/ | %151
 f/f/c'/c'/ =b/b/a/a/ ^g/g/a/a/ =g/g/f/f/ | =e/e/c/c/ =B/B/e/e/ d/d/c/c/ d/d/e/e/ | %153
 f/f/c'/c'/ =b/b/a/a/ ^g/g/a/a/ =g/g/f/f/ | =e/e/f/f/ e/e/d/d/ c/c/=B/B/ A/A/^G/G/ | %155
 A F2 G/A/ =B/c/d/=e/ fg | a2 f z/ a/ c'2 F2 | =E2- E^F/^G/ A/=B/c/d/ =e^g | a2 =e z/ a/ c'2 =E2 | %159
 (3D^FA c2 (3FAc ^d2 | (3Ac^d ^f2 (3^FAc (3dfa | c'4- c'=b/a/ ^g/a/=g/f/ | =e4- ed/c/ =B/d/c/B/ | %163
 A/=e/e/e/ e/e/e/e/ =B/e/e/e/ e/e/e/e/ | c/=e/e/e/ e/e/e/e/ =B/e/e/e/ e/e/e/e/ | %165
 A/=e/e/e/ ^g/e/e/e/ a/e/e/f/ g/e/e/e/ | a/=e/e/e/ ^g/e/e/e/ a/e/e/e/ g/e/e/e/ | a c'2 a2 =e2 c- | %168
 c a2 =e2 c2 A- | A z z2 z =E3 | a3 z c'3 z | A8 |] %172
V:2
 [aa']>[gg'] | [gg'][ff'] [aa']>[gg'] [gg'][ff'] [ff']>[ee'] | %2
 [ee'][dd'] [dd']>[cc'] [cc'] [Bb]2 [Aa-] | [Aa] [Gg]2 [Ff]2 [Ee][Dd][Cc] | %4
 [=B,=B]>[B=dfa] [Bdfa]2 (3z [B,B][Cc] (3[D_d][Cc][B,B] | [Cc]>[Bdfg] [Bdfg]2{D} C4 | %6
{=B,CD} C>[Bc=eg] [Bceg]2 z4 | A,/C/F/C/ A,/C/F/C/ A,/C/F/C/ A,/C/F/C/ | %8
 A,/C/F/C/ A,/C/F/C/ A,/C/F/C/ A,/C/F/C/ | A,/C/F/C/ A,/C/F/C/ A,/C/F/C/ A,/C/F/C/ | %10
 B,/D/F/D/ B,/D/F/D/ A,/C/F/C/ A,/C/F/C/ | A,/D/F/D/ G,/=B,/F/B,/ G,/C/=E/C/ G,/_B,/E/B,/ | %12
 A,/C/F/C/ A,/C/F/C/ A,/C/F/C/ A,/C/F/C/ | A,/C/F/C/ A,/C/F/C/ A,/C/F/C/ A,/C/F/C/ | %14
 B,/D/F/D/ B,/D/F/D/ C/F/A/F/ D/F/G/F/ | C/F/A/F/ C/=E/G/E/ A,/D/F/D/ A,/D/F/D/ | %16
 B,/D/F/D/ B,/D/F/D/ C/F/A/F/ D/F/G/B/ | [CFA]2 z2 z [Bd][Bc][B=e] | [Af]2 z2 z [C=EB][CEB][CEB] | %19
 [CFA]2 z2 z [EGB][EGc][EGd] | [EAc]2 z2 z [FGd][EGc][DGB] | [CEA][CEA][CEA] z z4 | %22
 z4 c/c'/c/c'/ A/a/A/a/ | [Ff][FAc][FAc] z z4 | z4 A/a/A/a/ F/f/F/f/ | [=D=d]>[Bdfb] [Bdf-b]6 | %26
 [Bdf-b]8 | [B=dfb] z z2 z4 | EFGA Bcde | fdBc dBFG | AE[Ac]E [Ac]E[Ac]E | [Ac]E[Ac]E [Ac]E[Ac]E | %32
 [G=B]E[GB]E [Ac]E[Ac]E | [DF]A[DF]A [CE]A[CE]A | [GB]E[GB]E [Ac]E[Ac]E | [Ac]E[Ac]E [Ac]E[Ac]E | %36
 [G=B]E[GB]E [Ac]E[Ac]E | [DF]A[EG][FA] [CE]A[FAd][EAc] | [GB]E[GB]E AE (3FGA | B4 F2 Bc | %40
 d2 cd B4 | B3 c dB b>[Aa] | [Afa]2 [Geg]2 [Fdf]2 [Fde]2 | [cc']4 [ee']2 [cc']2 | %44
 [=B=b]4 [cc'] z z2 | z [A,DF][A,DF][A,DF] z [=A,EF][A,EF][A,EF] | %46
 z [B,DF][B,DF][B,DF] [B,DF][B,DF][B,DF][B,DF] | z [B,EB][B,EB][CEc] [DGd][B,EG][B,EG][B,EG] | %48
 z [CEA][CEA][CEA] z [ee'][ee'][ee'] | a2 [ee']/f/4g/4a/4b/4c'/4d'/4 [ee'][ee'][ee'][ee'] | %50
 [cac']4 [Bgb][Bgb][Aea][Aea] | [Geg][Geg][Fdf][Fdf] [Ece][Ece][DBd][DBd] | %52
 [cac'][eac'][cea][Ace] [EAc]4 | [=DAc][fac'][=dfa][cdf] [Acd]4 | %54
 [ABd][ABdf][ABd][FAB] [DFAB][DFAB][DEGB][DEGc] | [CFA]2 [Aa]>[Gg] [Gg][Ff][=E=e][Ff] | %56
 [cc']2 =b/c'/f'/c'/ g/a/c'/a/ =e/f/a/f/ | =B/c/f/A/ G/A/d/A/ F2 [Aa]>[Gg] | %58
 [Gg][Ff][=E=e][Ff] [dd']2 c'/d'/f'/d'/ | =a/b/d'/b/ =e/f/b/f/ c/d/f/d/ =A/B/d/B/ | %60
 F2 [dd']>[cc'] [cc'][Bb][=A=a][Bb] | [ff']2 c'/d'/f'/d'/ =a/b/d'/b/ =e/f/b/f/ | %62
 c/d/f/d/ =A/B/d/B/ F2 [dd']>[cc'] | [cc'][Bb][=A=a][Bb] [ee']3 e | e/A/c/e/ =d2- dd/e/ f/d/e/f/ | %65
 [Gg-]2 [Gg]/G/c/e/ g2- [Gg]/G/=B/=d/ | [Gc=e]4 z4 | [=ec'=e']4 [ge'g']2 [ec'e']2 | %68
 [e=be']4 [=ec'=e']2 [cc']2 | [=A=a]2 [cc']2 [Gg]2 [cc']>[=e=e'] | [ge'-]2 [ge']>=d' [ge']4 | %71
 [=e=e']2 [=a=a']4 [gg'][ee'] | [ebe']4 [=ec'=e']2 [cc']2 | [=A=a]2 [cc']2 [Gg]2 [cc']>[=e=e'] | %74
 [gg']3 [=d=d'] [ee'-]2 [ee']c/d/ | e2- ec/=d/ e2- ed/c/ | f3 c d2- dB/c/ | d2- dB/c/ d2- dc/B/ | %78
 e3 =B c2- cd/c/ | B2- Bc/B/ A2- AB/A/ | G(3C/=E/G/ (3c/=e/g/(3c'/=e'/g'/ c'' z [B,CE] z | %81
 [CF] z z2 z2 [Aa]>[Gg] | [Gg][Ff][=E=e][Ff] c2 [Ff]>[Gg] | [Aa][Bb][cc']f [cc']2 [Bb]>[cc'] | %84
 [dd']f [dd']>b [cc']f [Ff]>g | [Aa](3a/b/a/ g/f/=e/f/ [Fg]c [cc']3/2 z/ | %86
 A,/C/F/C/ A,/C/F/C/ A,/C/F/C/ A,/C/F/C/ | A,/C/F/C/ A,/C/F/C/ A,/C/F/C/ A,/C/F/C/ | %88
 B,/D/F/D/ B,/D/F/D/ C/F/A/F/ D/F/G/F/ | C/F/A/F/ C/=E/G/E/ A,/D/F/D/ A,/D/F/D/ | %90
 B,/D/F/D/ B,/D/F/D/ C/F/A/F/ D/F/G/B/ | [CFA]2 z2 z [Bd][Bc][B=e] | [Af]2 z2 z [CGB][CGB][CGB] | %93
 [CFA]2 z2 z [=DF][EG][FA] | [EG]2 z2 z [=DAc][DGB][DFA] | %95
 [EG]/B,/[EG]/B,/ [EG]/B,/[EG]/B,/ [EG]/C/[EG]/C/ [=EG]/C/[EG]/C/ | %96
 F/C/F/C/ F/C/F/C/ [=D_G]/C/[DG]/C/ [DG]/C/[DG]/C/ | [=B,=DG]2 z2 z [_G=A][=G=B][Ac] | %98
 [G=B]2 z2 z [_G=A][=GB][_Ac] | [G=B]/D/[GB]/D/ [_G=A]/D/[GA]/D/ [=GB]/D/[GB]/D/ [Ac]/D/[Ac]/D/ | %100
 [G=B][_G=A][=GB][Ac] [GB]_G[=GB][Ac] | [G=B]2 z2 [GB=dg]2 [GBdg]2 | [G=B=dg]GGG GGGG | %103
 G[CFA][CFA][CFA] [=DFA][Ac][GB][FA] | [EG][EG][EG][EG] [EG][GB][FA][EG] | %105
 [EG][=DF][DF]E [FA][FA][B,DB][B,DB] | [EG]B,[EG]B, [EG]B,[EG]B, | [EG]B,[EG]B, [EG]B,[EG]B, | %108
 [=D_G]B,[DG]B, [E=G]B,[EG]B, | z [A,EA][A,EA][A,EA] z [C=EB][CEB][CEB] | %110
 z [CFA][CFA][CFA] [CFA][CFA][CFA][CFA] | z [B,F][B,F][B,G] [B,A][B,=D][B,D][B,D] | %112
 z [B,E][B,EB][B,EB] z [Bb][Bb][Bb] | e2 [Bb]/c/4=d/4e/4f/4g/4a/4 [Bb][Bb][Bb][Bb] | %114
 [ge'g']4 [f=d'f'][fd'f'][ebe'][ebe'] | [=db=d'][dbd'][cac'][cac'] [Bgb][Bgb][Afa][Afa] | %116
 [Geg][Beg][GBe][DGB] [B,EG]4 | [=A,EG][ceg][=Ace][GAc] [EGA]4 | %118
 [EFA][EFAc][EFA][CEF] [A,CEF][A,CEF][A,B,=DF][A,B,DG] | E4- (3EEF (3GAB | B2 A2- (3AAB (3_cde | %121
 [cc]2 d2- (3d[Bd][_ce] (3[d_f][eg][fa] | [=df]2 _g2- (3g[B_d][_ce] (3[d_f][e=g][fa] | %123
 [_fa]2 [e_g] z z [G=g]2 =f | f/e/=d/e/ c2- c/=B/d/f/ [Aa]>g | f/e/=d/e/ c2- c/c/=e/g/ [Bb]>a | %126
 g/f/=e/f/ c2- c/e/g/b/ [dd']>c' | [Bb][Aa] [aa']>[gg'] [gg'][ff'] [aa']>[gg'] | %128
 [gg'][ff'] [aa']>[gg'] [gg'][ff'] [ff']>[ee'] | [ee'][dd'] [dd']>[cc'] [cc'] [Bb]2 [Aa-] | %130
 [Aa] [Gg]2 [Ff]2 [Ee][Dd][Cc] | [=B,=B]>[B=dfa] [Bdfa] z z4 | z2 [=B,=B][Cc] [Dd]2 cB | %133
 [Cc]2 z2 [cfac']2 z2 | C2 z2 [c=egc']2 !fermata!z2 || A,/C/F/C/ A,/C/F/C/ A,/C/F/C/ A,/C/F/C/ | %136
 A,/C/F/C/ A,/C/F/C/ A,/C/F/C/ A,/C/F/C/ | B,/D/F/D/ B,/D/F/D/ C/F/A/F/ D/F/G/F/ | %138
 C/F/A/F/ C/=E/G/E/ A,/C/F/C/ A,/C/F/C/ | B,/D/F/D/ B,/D/F/D/ C/F/A/F/ D/F/G/B/ | %140
 [CFA]2 z2 [C=EG]2 z2 | [A,DF-]8 | [A,DF]6 [A,DF]2 | [C-FA]8 | [CFA]6 [CFA]2 | %145
 [=DFA]2 z [DFA] [F=AB]2 z [FAB] | [FA=d]2 z [FAd] [FAdf]2 [FAdf]2 | z [FAc][FAc][FAc] [FAc]2 z2 | %148
 z [B,=EG][B,EG][B,EG] [B,EG]2 z2 | A,/C/F/C/ A,/C/F/C/ A,/C/F/C/ A,/C/F/C/ | %150
 A,/C/F/C/ A,/C/F/C/ A,/C/F/C/ A,/C/F/C/ | B,/D/F/D/ B,/D/F/D/ C/F/A/F/ D/F/G/F/ | %152
 C/F/A/F/ C/=E/G/E/ A,/C/F/C/ A,/C/F/C/ | B,/D/F/D/ B,/D/F/D/ C/F/A/F/ D/F/G/B/ | %154
 [CFA]2 z2 [C=EG]2 z2 | [A,DF-]8 | [A,DF]6 [A,DF]2 | [C-FA]8 | [CFA]6 [CFA]2 | %159
 [=DFA]2 z [DFA] [F=AB]2 z [FAB] | [FA=d]2 z [FAd] [FAdf]2 [FAdf]2 | z [FAc][FAc][FAc] [FAc]2 z2 | %162
 z [B,=EG][B,EG][B,EG] [B,EG]2 z2 | z2 [A,CF]2 z2 [C=EG]2 | z2 [CFA]2 z2 [C=EG]2 | %165
 [A,CF]2 [C=EG]2 [CFA]2 [CEG]2 | [A,CF]2 [C=EG]2 [CFA]2 [CEG]2 | [CF]FAc fAcf | acfa c'fac' | %169
 [ff']2 z3/2 [A,CF]/ [A,CF]2 [A,CF]2 | [A,CF]3 z [fac'f']3 z | !fermata!d8 |] %172
V:3
 A,>G, | G,F, A,>G, G,F, F,>E, | E,D, D,>C, [C,C]2 [C,B,]2 | %3
 [A,,A,]2 [G,,G,]2 [F,,F,][E,,E,][D,,D,][C,,C,] | x8 | [C,,C,]>[B,DFG] [B,DFG]2{D,} C,4 | %6
{=B,,C,D,} C,>[B,C=EG] [B,CEG]2 z4 | [F,,F,]2 z2 [F,,F,]2 z2 | [F,,F,]2 z2 [F,,F,]2 z2 | %9
 [F,,F,]2 z2 [F,,F,]2 z2 | [F,,F,]2 z2 [F,,F,]2 z2 | [D,,D,]4 [C,,C,]4 | [F,,F,]2 z2 [F,,F,]2 z2 | %13
 [F,,F,]2 z2 [F,,F,]2 z2 | [B,,B,,]4 [A,,A,,]2 B,,2 | C,2 C,2 [D,,D,]4 | [B,,B,,]4 [A,,A,,]2 B,,2 | %17
 C,2 z2 z [C=E][CE]C | [F,CF]2 z2 z C,C,C, | [F,,F,]2 z2 z [E,D][E,C][E,B,] | %20
 [A,,A,]2 z2 z E,E,E, | [A,,A,][A,,A,][A,,A,] z z4 | z4 [C,C]2 [A,,A,]2 | %23
 [F,,F,][F,,F,][F,,F,] z z4 | z4 [F,,F,]2 [=D,,=D,]2 | [B,,,B,,]>[B,=DFA] [B,DFA-]6 | [B,=DFA-]8 | %27
 [B,=DFA] z z2 z4 | E,8- | (E,8 | A,4) z4 | x8 | x8 | D,4 E,4- | [E,,E,]4 A,,4 | x8 | x8 | x8 | %38
 x8 | z [F,B,D][F,B,D][F,B,D] [F,B,D][F,B,D][F,B,D][F,B,D] | %40
 z [F,B,D][F,B,D][F,B,D] [F,B,D][F,B,D][F,B,D][F,B,D] | %41
 z [F,B,D][F,B,D][F,B,D] [F,B,D][F,B,D][F,B,D][F,B,D] | %42
 z [E,B,D][E,B,D][E,B,D] [E,B,D][E,B,D][E,B,D][E,B,D] | %43
 A,[E,A,C][E,A,C][E,A,C] [E,A,C][E,A,C][E,A,C][E,A,C] | %44
 z [A,=B,=D][A,B,D][A,B,D] [A,CE][A,CE][A,CE][A,CE] | [F,,F,]4 F,,4 | B,,6 [A,,A,]2 | %47
 [G,,G,]3 [A,,A,] [B,,B,]2 D,2 | C,4 z [E,G,B,][E,G,B,][E,G,B,] | %49
 z [E,A,C][E,A,C][E,A,C] z [G,DE][G,DE][G,DE] | %50
 A,,/C,/E,/A,/ C/A,/E,/C,/ B,,/D,/G,/B,/ C,/E,/A,/C/ | %51
 D,/F,/B,/D/ B,/D/B,/F,/ z [F,B,D][F,B,D][F,B,D] | E,4 E, z z2 | [F,,F,]4 [F,,F,] z z2 | E,6 E,,2 | %55
 [F,,D,]/C/[F,A,]/C/ [F,A,]/C/[F,A,]/C/ [F,A,]/C/[F,A,]/C/ [F,A,]/C/[F,A,]/C/ | %56
 [F,A,]/C/[F,A,]/C/ [F,A,]/C/[F,A,]/C/ [F,A,]/C/[F,A,]/C/ [F,A,]/C/[F,A,]/C/ | %57
 [F,A,]/C/[F,A,]/C/ [F,A,]/C/[F,A,]/C/ [F,A,]/C/[F,A,]/C/ [F,A,]/C/[F,A,]/C/ | %58
 [F,A,]/C/[F,A,]/C/ [F,A,]/C/[F,A,]/C/ [F,B,]/D/[F,B,]/D/ [F,B,]/D/[F,B,]/D/ | %59
 [F,B,]/D/[F,B,]/D/ [F,B,]/D/[F,B,]/D/ [F,B,]/D/[F,B,]/D/ [F,B,]/D/[F,B,]/D/ | %60
 [F,B,]/D/[F,B,]/D/ [F,B,]/D/[F,B,]/D/ [F,B,]/D/[F,B,]/D/ [F,B,]/D/[F,B,]/D/ | %61
 [E,B,]/D/[E,B,]/D/ [E,B,]/D/[E,B,]/D/ [E,B,]/D/[E,B,]/D/ [E,B,]/D/[E,B,]/D/ | %62
 [E,B,]/D/[E,B,]/D/ [E,B,]/D/[E,B,]/D/ [E,B,]/D/[E,B,]/D/ [E,B,]/D/[E,B,]/D/ | %63
 [E,G,]/D/[E,G,]/D/ [E,G,]/D/[E,G,]/D/ [A,C]/E/[A,C]/E/ [A,C]/E/[A,C]/E/ | %64
 [A,C]/E/[A,C]/E/ [A,C]/F/[A,C]/F/ [=A,B,]/F/[A,B,]/F/ [A,B,]/F/[A,B,]/F/ | %65
 [G,C]/E/[G,C]/E/ [G,C]/E/[G,C]/E/ [G,=B,D]/F/[G,B,D]/F/ [G,B,D]/F/[G,B,D]/F/ | %66
 z [G,C=E][G,CE][G,CE] [G,CE][G,CE][G,CE][G,CE] | z [G,C=E][G,CE][G,CE] [G,CE][G,CE][G,CE][G,CE] | %68
 z [G,=B,E][G,B,E][G,B,E] [G,C=E][G,CE][G,CE][G,CE] | %69
 [F,=A,CF][F,A,CF][F,A,CF][F,A,CF] [G,C=E][G,CE][G,CE][G,CE] | %70
 [G,=B,F][G,B,F][G,B,F][G,B,F] [C=E][CE][CE][CE] | z [G,C=E][G,CE][G,CE] [G,CE][G,CE][G,CE][G,CE] | %72
 z [G,=B,E][G,B,E][G,B,E] [G,C=E][G,CE][G,CE][G,CE] | %73
 [F,=A,CF][F,A,CF][F,A,CF][F,A,CF] [G,C=E][G,CE][G,CE][G,CE] | %74
 [G,=B,F][G,B,F][G,B,F][G,B,F] z [G,CE][G,CE] z | z [G,CE][G,CE] z z [F,CE][F,CE] z | %76
 z [F,=A,E][F,A,E] z z [F,B,D][F,B,D] z | z [F,B,D][F,B,D] z z [E,B,D][E,B,D] z | %78
 z [E,G,D][E,G,D] z z [E,A,C][E,A,C] z | z [D,G,][D,G,] z z [F,A,][F,A,] z | %80
 [C,=E,G,-]4 [C,E,G,] z C, z | %81
 [F,A,]/C/[F,A,]/C/ [F,A,]/C/[F,A,]/C/ [F,A,]/C/[F,A,]/C/ [F,A,]/C/[F,A,]/C/ | %82
 [F,A,]/C/[F,A,]/C/ [F,A,]/C/[F,A,]/C/ [F,A,]/C/[F,A,]/C/ [F,A,]/C/[F,A,]/C/ | %83
 [F,A,]/C/[F,A,]/C/ [F,A,]/C/[F,A,]/C/ [F,A,]/C/[F,A,]/C/ [F,A,]/C/[F,A,]/C/ | %84
 [F,B,]/D/[F,B,]/D/ [F,B,]/D/[F,B,]/D/ [F,A,]/C/[F,A,]/C/ [F,A,]/C/[F,A,]/C/ | %85
 [D,F,]/A,/[D,F,]/A,/ [D,F,]/=B,/[D,F,]/B,/ [C,=E,]/C/[C,E,]/C/ [C,E,]/_B,/[C,E,]/B,/ | %86
 [F,,F,]2 z2 [F,,F,]2 z2 | [F,,F,]2 z2 [F,,F,]2 z2 | B,,4 A,,2 B,,2 | C,2 C,2 [D,,D,]4 | %90
 B,,4 A,,2 B,,2 | C,2 z2 z [C=E][CE]C | [F,CF]2 z2 z C,C,C, | [F,,F,]2 z2 z B,,B,,B,, | %94
 [E,,B,,E,]2 z2 z B,,B,,B,, | E,2 [=D,,=D,]2 [C,,C,]2 [B,,,B,,]2 | [=A,,,=A,,]4 [_A,,,_A,,]4 | %97
 [G,,,G,,]2 z2 z =D,D,D, | [G,,=D,G,]2 z2 z D,D,D, | [G,,G,]2 =D,2 [G,,G,]2 D,2 | %100
 [G,,G,]=D,[G,,G,]D, [G,,G,]D,[G,,G,]D, | [G,,=D,G,]2 z2 [G,,=B,,D,G,]2 [G,,B,,D,G,]2 | %102
 [G,,=B,,=D,G,]G,G,G, G,G,G,G, | G,F,/E,/ =D,C, B,,[B,,D,][C,E,][D,F,] | %104
 [E,G,]E,/D,/ C,E, B,,[E,G,][F,A,][G,B,] | [A,C]3 [G,B,] [F,A,]4 | G,2 z2 z4 | E,8 | [E,,E,]4 D,4 | %109
{C,D,} C,8 | [F,,F,]6 E,2 |{=D,E,} D,3 E, F,2 [A,,A,]2 | [G,,G,]4 z [B,=DF][B,DF][B,DF] | %113
 z [B,E][B,E][B,E] z [A,B,=D][A,B,D][A,B,D] | %114
 E,/G,,/B,,/E,/ G,/E,/B,,/A,,/ F,,/A,,/=D,/F,/ G,,/B,,/E,/G,/ | %115
 A,,/C,/F,/A,/ F,/A,/F,/C,/ A,,/C,/F,/A,/ F,/A,/F,/C,/ | B,,4- B,, z z2 | [C,,C,-]4 [C,,C,] z z2 | %118
 B,,8 | z [E,G,B,]2 [E,G,B,] z [E,G,B,]2 [E,G,B,] | z [E,A,]2 [E,A,] z [D,F,A,]2 [D,F,A,] | %121
 z [D,_G,]2 z z [G,B,_F]2 [G,B,F] | z [G,_CE]2 [G,CE] z [G,B,_F]2 [G,B,F] | %123
 z [_G,_CE]2 [G,CE] z [G,=B,=DF]2 [=G,B,D] | z [G,CE]2 [G,CE] z [G,=B,=DF]2 [G,B,DF] | %125
 z [G,CE]2 [G,CE] z [=E,G,C]2 [E,G,C] | z [F,A,C]2 [F,A,C] z [=E,G,C]2 [E,G,C] | %127
 [F,,F,][F,A,C] A,>G, G,F, A,>G, | G,F, A,>G, G,F, F,>E, | E,D, D,>C, [C,C]2 [B,,B,]2 | %130
 [A,,A,]2 [G,,G,]2 [F,,F,][E,,E,][D,,D,][C,,C,] | [=B,,,=B,,]>[=B,=DFA] [B,DFA] z z4 | %132
 z2 [=B,,,=B,,][C,,C,] [D,,D,]2 [C,,C,][B,,,B,,] | [C,,C,]2 z2 [E,,A,,C,]2 z2 | %134
 [C,,C,]2 z2 [E,,B,,D,]2 !fermata!z2 || [F,,F,]2 z2 [F,,F,]2 z2 | [F,,F,]2 z2 [F,,F,]2 z2 | %137
 B,,4 A,,2 B,,2 | C,2 C,2 [F,,F,]4 | B,,4 A,,2 B,,2 | C,2 z2 [C,,C,]2 z2 | [D,,-D,]8 | %142
 [D,,D,]6 [D,,D,]2 | [C,,-C,]8 | [C,,C,]6 [C,,C,]2 | %145
 [=B,,,=B,,]2 z [B,,,B,,] [B,,,B,,]2 z [B,,,B,,] | [=B,,,=B,,]2 z [B,,,B,,] [B,,,B,,]2 [B,,,B,,]2 | %147
 z [C,,C,][C,,C,][C,,C,] [C,,C,]2 z2 | z C,C,C, C,2 z2 | [F,,F,]2 z2 [F,,F,]2 z2 | %150
 [F,,F,]2 z2 [F,,F,]2 z2 | B,,4 A,,2 B,,2 | C,2 C,2 [F,,F,]4 | B,,4 A,,2 B,,2 | %154
 C,2 z2 [C,,C,]2 z2 | [D,,-D,]8 | [D,,D,]6 [D,,D,]2 | [C,,-C,]8 | [C,,C,]6 [C,,C,]2 | %159
 [=B,,,=B,,]2 z [B,,,B,,] [B,,,B,,]2 z [B,,,B,,] | [=B,,,=B,,]2 z [B,,,B,,] [B,,,B,,]2 [B,,,B,,]2 | %161
 z [C,,C,][C,,C,][C,,C,] [C,,C,]2 z2 | z C,C,C, C,2 z2 | [F,,F,]2 z2 C,2 z2 | [F,,F,]2 z2 C,2 z2 | %165
 [F,,F,]2 C,2 [F,,F,]2 C,2 | [F,,F,]2 C,2 [F,,F,]2 C,2 | [F,A,] z [F,A,C] z [F,A,CF] z [F,A,CF] z | %168
 [F,A,CF] z [F,A,CF] z [F,A,CF] z [F,A,CF] z | [F,A,CF]2 z3/2 [F,,F,]/ [F,,F,]2 [F,,F,]2 | %170
 [F,,F,]3 z [FAc]3 z | !fermata![F,,,F,,]8 |] %172
V:4
 x2 | x8 | x8 | x8 | %4
 [=B,,,=B,,]>[=B,=DFA] [B,DFA]2 (3z [B,,,B,,][C,,C,] (3[D,,D,][C,,C,][B,,,B,,] | x8 | x8 | x8 | %8
 x8 | x8 | x8 | x8 | x8 | x8 | x8 | x8 | x8 | x8 | x8 | x8 | x8 | x8 | x8 | x8 | x8 | x8 | x8 | %27
 x8 | x8 | x8 | x8 | A,,4 z4 | A,,4 z4 | x8 | x8 | A,,4 z4 | A,,4 z4 | D,4 E,4 | %38
 [A,D]4 [A,C] z z2 | x8 | x8 | x8 | x8 | x8 | x8 | x8 | x8 | x8 | x4 D,4 | C,4 B,,4 | A,,4 x4 | %51
 D,4 D,4 | x8 | x8 | x8 | x8 | x8 | x8 | x8 | x8 | x8 | x8 | x8 | x8 | x8 | x8 | [C,,C,]4 x4 | %67
 C,8 | C,8 | x8 | x8 | C,8 | C,8 | x8 | z4 C,3 z | B,,3 z =A,,3 z | F,,3 z B,,3 z | A,,3 z G,,3 z | %78
 E,,3 z A,,3 z | B,,3 z C,3 z | x8 | x8 | x8 | x8 | x8 | x8 | x8 | x8 | x8 | x8 | x8 | x8 | x8 | %93
 x8 | x8 | x8 | x8 | x8 | x8 | x8 | x8 | x8 | x8 | x8 | x8 | z4 F,2 B,,2 | E,8 | E,,4 z4 | x8 | %109
 C,4 C,,4 | x8 | x8 | G,,4 A,4 | G,4 F,4 | E,,4 F,,2 G,,2 | A,,8 | x8 | x8 | B,,4 B,,,4 | %119
 E,,4 D,4 | C,4 _C,4 | B,,4 _G,,4 | _C,4 _G,,4 | _C,4 G,,4 | C,4 G,,4 | C,4 G,,4 | C,4 C,4 | x8 | %128
 x8 | x8 | x8 | x8 | x8 | x8 | x8 || x8 | x8 | x8 | x8 | x8 | x8 | x8 | x8 | x8 | x8 | x8 | x8 | %147
 x8 | x8 | x8 | x8 | x8 | x8 | x8 | x8 | x8 | x8 | x8 | x8 | x8 | x8 | x8 | x8 | x8 | x8 | x8 | %166
 x8 | x8 | x8 | x8 | x8 | x8 |] %172
V:5
 x2 | x8 | x8 | x8 | x8 | x8 | x8 | x8 | x8 | x8 | x8 | x8 | x8 | x8 | x8 | x8 | x8 | x8 | x8 | %19
 x8 | x8 | x8 | x8 | x8 | x8 | x8 | x8 | x8 | [G,D]4 [G,D]CB,A, | G,B,DC B,D FE/D/ | x8 | A,8 | %32
 A,8 | x8 | x8 | A,8 | A,8 | x8 | x8 | [E,,E,]8 | [E,,E,]8 | [E,,E,]8 | [E,,E,]8 | [A,,A,,]8 | %44
 [_G,,_G,]8 | x8 | x8 | x8 | x8 | x8 | x8 | x8 | x8 | x8 | x8 | x8 | x8 | x8 | x8 | x8 | x8 | x8 | %62
 x8 | x8 | x8 | x8 | x8 | x8 | x8 | x8 | x8 | x8 | x8 | x8 | x8 | x8 | x8 | x8 | x8 | x8 | x8 | %81
 x8 | x8 | x8 | x8 | x8 | x8 | x8 | x8 | x8 | x8 | x8 | x8 | x8 | x8 | x8 | x8 | x8 | x8 | x8 | %100
 x8 | x8 | x8 | x8 | x8 | x8 | x8 | x8 | x8 | x8 | x8 | x8 | x8 | x8 | x8 | x8 | x8 | x8 | x8 | %119
 x8 | x8 | x8 | x8 | x8 | x8 | x8 | x8 | x8 | x8 | x8 | x8 | x8 | x8 | x8 | x8 || x8 | x8 | x8 | %138
 x8 | x8 | x8 | x8 | x8 | x8 | x8 | x8 | x8 | x8 | x8 | x8 | x8 | x8 | x8 | x8 | x8 | x8 | x8 | %157
 x8 | x8 | x8 | x8 | x8 | x8 | x8 | x8 | x8 | x8 | x8 | x8 | x8 | x8 | x8 |] %172
V:6
 x2 | x8 | x8 | x8 | x8 | x8 | x8 | x8 | x8 | x8 | x8 | x8 | x8 | x8 | x8 | x8 | x8 | x8 | x8 | %19
 x8 | x8 | x8 | x8 | x8 | x8 | x8 | x8 | x8 | x8 | x8 | x8 | x8 | x8 | x8 | x8 | x8 | x8 | x8 | %38
 x8 | x8 | x8 | x8 | x8 | x8 | x8 | x8 | x8 | x8 | x8 | x8 | x8 | x8 | x8 | x8 | x8 | x8 | x8 | %57
 x8 | x8 | x8 | x8 | x8 | x8 | x8 | x8 | x8 | x8 | x8 | x8 | x8 | x8 | x8 | x8 | x8 | x8 | x8 | %76
 x8 | x8 | x8 | x8 | x8 | x8 | x8 | x8 | x8 | x8 | x8 | x8 | x8 | x8 | x8 | x8 | x8 | x8 | x8 | %95
 x8 | x8 | x8 | x8 | x8 | x8 | x8 | x8 | x8 | x8 | x8 | x8 | x8 | x8 | x8 | x8 | x8 | x8 | x8 | %114
 x8 | x8 | x8 | x8 | x8 | [G,B,] x x2 x4 | x8 | x8 | x8 | x8 | x8 | x8 | x8 | x8 | x8 | x8 | x8 | %131
 x8 | x8 | x8 | x8 || x8 | x8 | x8 | x8 | x8 | x8 | x8 | x8 | x8 | x8 | x8 | x8 | x8 | x8 | x8 | %150
 x8 | x8 | x8 | x8 | x8 | x8 | x8 | x8 | x8 | x8 | x8 | x8 | x8 | x8 | x8 | x8 | x8 | x8 | x8 | %169
 x8 | x8 | x8 |] %172

